dataset/io.github.pieterdd.RcloneShuttle/icon.svg

<?xml version="1.0" encoding="UTF-8" standalone="no"?>
<svg
   width="128"
   height="128"
   version="1"
   id="svg566"
   xmlns:xlink="http://www.w3.org/1999/xlink"
   xmlns="http://www.w3.org/2000/svg"
   xmlns:svg="http://www.w3.org/2000/svg">
  <defs
     id="defs570">
    <linearGradient
       id="linearGradient15">
      <stop
         style="stop-color:#964100;stop-opacity:1;"
         offset="0.23758866"
         id="stop16" />
      <stop
         style="stop-color:#190000;stop-opacity:1;"
         offset="1"
         id="stop15" />
    </linearGradient>
    <linearGradient
       id="linearGradient1">
      <stop
         style="stop-color:#ffe7cf;stop-opacity:1;"
         offset="0"
         id="stop13" />
      <stop
         style="stop-color:#fff8f1;stop-opacity:1;"
         offset="1"
         id="stop14" />
    </linearGradient>
    <linearGradient
       xlink:href="#linearGradient871-8"
       id="linearGradient1710"
       x1="9.9643049"
       y1="65.96431"
       x2="118.0357"
       y2="65.96431"
       gradientUnits="userSpaceOnUse"
       gradientTransform="matrix(1.1103771,0,0,1.0918709,-7.06413,-6.024513)" />
    <linearGradient
       id="linearGradient871-8">
      <stop
         style="stop-color:#664c00;stop-opacity:1;"
         offset="0"
         id="stop867-7" />
      <stop
         style="stop-color:#ffd557;stop-opacity:1;"
         offset="0.40682855"
         id="stop875-0" />
      <stop
         style="stop-color:#664d00;stop-opacity:1;"
         offset="0.81"
         id="stop877-4" />
      <stop
         style="stop-color:#ffd34c;stop-opacity:1;"
         offset="1"
         id="stop881-8" />
    </linearGradient>
    <linearGradient
       xlink:href="#linearGradient1"
       id="linearGradient14"
       x1="64"
       y1="34.712212"
       x2="64"
       y2="87.790482"
       gradientUnits="userSpaceOnUse" />
    <radialGradient
       xlink:href="#linearGradient15"
       id="radialGradient16"
       cx="63.999954"
       cy="97.340324"
       fx="63.999954"
       fy="97.340324"
       r="51"
       gradientTransform="matrix(1.6131737,0,0,0.98039216,-39.243086,1.2156863)"
       gradientUnits="userSpaceOnUse" />
  </defs>
  <path
     fill="#1ed760"
     d="m 124,66 v 0 C 124,33.339283 97.214281,6.999997 64,6.999997 v 0 C 30.78571,6.999997 4,33.339283 4,66 v 0 c 0,32.66071 26.78571,59 60,59 v 0 c 33.214281,0 60,-26.33929 60,-59 z"
     id="path550-6"
     style="fill:url(#linearGradient1710);fill-opacity:1;stroke-width:2.12492" />
  <path
     fill="#1ed760"
     d="m 124,62.000001 v 0 c 0,-32.660714 -26.785725,-59 -60.000008,-59 v 0 c -33.214283,0 -59.9999949,26.339286 -59.9999949,59 v 0 C 3.9999972,94.660714 30.785709,121 63.999992,121 v 0 C 97.214275,121 124,94.660714 124,62.000001 Z"
     id="path550"
     style="fill:#e7ad00;fill-opacity:1;stroke-width:2.12492" />
  <ellipse
     style="opacity:1;fill:url(#radialGradient16);fill-opacity:1;stroke-width:2.79965;stroke-opacity:0.1"
     id="path18"
     cx="64"
     cy="62"
     rx="51"
     ry="50" />
  <path
     d="M 37.460864,96.647379 V 75.026606 c 0,-1.216689 0.26376,-2.371899 0.78931,-3.466622 0.52654,-1.094723 1.25933,-1.977244 2.19638,-2.64558 l 3.64908,-2.64558 c 0.387714,5.108706 0.995563,9.456857 1.824538,13.045446 0.829966,3.587596 2.128958,7.571832 3.897966,11.950722 z M 54.79397,89.349228 c -1.934605,-4.013984 -3.37242,-8.2719 -4.312454,-12.771765 -0.940034,-4.500857 -1.41005,-9.153429 -1.41005,-13.957714 0,-7.602572 1.369395,-14.762891 4.107193,-21.482941 2.737798,-6.719059 6.345227,-11.812891 10.821294,-15.281496 4.47805,3.466622 8.08647,8.560454 10.824269,15.281496 2.737798,6.722033 4.106201,13.882353 4.104218,21.482941 0,4.743798 -0.470017,9.350756 -1.41005,13.822857 a 58.957361,58.957361 0 0 1 -4.312454,12.906622 z m 9.205983,-25.54353 c 1.824538,0 3.387294,-0.713949 4.687277,-2.14284 1.300975,-1.427899 1.949479,-3.146336 1.947496,-5.155311 -0.002,-2.009966 -0.651479,-3.727412 -1.947496,-5.153327 -1.296017,-1.424925 -2.858773,-2.140858 -4.687277,-2.144824 -1.828504,-0.005 -3.390269,0.709983 -4.684303,2.144824 -1.294033,1.435831 -1.943529,3.153277 -1.95047,5.153327 -0.0069,1.999059 0.643546,3.718488 1.95047,5.155311 1.306925,1.437815 2.868689,2.151765 4.684303,2.14284 z M 90.539045,96.647379 78.181768,91.264992 c 1.769008,-4.37889 3.068,-8.363126 3.897966,-11.950722 0.828975,-3.588589 1.436824,-7.93674 1.824538,-13.045446 l 3.649076,2.64558 c 0.940033,0.668336 1.672823,1.550857 2.199361,2.64558 a 7.8673277,7.8673277 0 0 1 0.786336,3.466622 z"
     fill="url(#g)"
     class="fills"
     id="path6"
     style="fill:url(#linearGradient14);stroke-width:0.991597" />
</svg>

<svg xmlns="http://www.w3.org/2000/svg" xmlns:xlink="http://www.w3.org/1999/xlink" width="128" height="128"><defs><linearGradient id="c"><stop offset=".238" style="stop-color:#964100;stop-opacity:1"/><stop offset="1" style="stop-color:#190000;stop-opacity:1"/></linearGradient><linearGradient id="b"><stop offset="0" style="stop-color:#ffe7cf;stop-opacity:1"/><stop offset="1" style="stop-color:#fff8f1;stop-opacity:1"/></linearGradient><linearGradient xlink:href="#a" id="d" x1="9.964" x2="118.036" y1="65.964" y2="65.964" gradientTransform="matrix(1.11038 0 0 1.09187 -7.064 -6.025)" gradientUnits="userSpaceOnUse"/><linearGradient id="a"><stop offset="0" style="stop-color:#664c00;stop-opacity:1"/><stop offset=".407" style="stop-color:#ffd557;stop-opacity:1"/><stop offset=".81" style="stop-color:#664d00;stop-opacity:1"/><stop offset="1" style="stop-color:#ffd34c;stop-opacity:1"/></linearGradient><linearGradient xlink:href="#b" id="f" x1="64" x2="64" y1="34.712" y2="87.79" gradientUnits="userSpaceOnUse"/><radialGradient xlink:href="#c" id="e" cx="64" cy="97.34" r="51" fx="64" fy="97.34" gradientTransform="matrix(1.61317 0 0 .9804 -39.243 1.216)" gradientUnits="userSpaceOnUse"/></defs><path fill="#1ed760" d="M124 66c0-32.66-26.786-59-60-59S4 33.34 4 66s26.786 59 60 59 60-26.34 60-59" style="fill:url(#d);fill-opacity:1;stroke-width:2.12492"/><path fill="#1ed760" d="M124 62c0-32.66-26.786-59-60-59S4 29.34 4 62s26.786 59 60 59 60-26.34 60-59" style="fill:#e7ad00;fill-opacity:1;stroke-width:2.12492"/><ellipse cx="64" cy="62" rx="51" ry="50" style="opacity:1;fill:url(#e);fill-opacity:1;stroke-width:2.79965;stroke-opacity:.1"/><path fill="url(#g)" d="M37.46 96.647v-21.62q.001-1.825.79-3.467.791-1.642 2.197-2.646l3.649-2.645q.58 7.663 1.824 13.045t3.898 11.951zm17.334-7.298q-2.902-6.022-4.312-12.772t-1.41-13.957q0-11.404 4.107-21.483Q57.285 31.057 64 25.855q6.717 5.2 10.824 15.282t4.104 21.483q0 7.115-1.41 13.823a59 59 0 0 1-4.312 12.906zM64 63.806q2.736 0 4.687-2.143t1.948-5.155q-.004-3.015-1.948-5.154Q66.742 49.217 64 49.21t-4.684 2.145q-1.941 2.153-1.95 5.154-.011 2.999 1.95 5.155T64 63.806m26.539 32.841-12.357-5.382q2.653-6.569 3.898-11.95 1.244-5.384 1.824-13.046l3.65 2.645q1.41 1.003 2.199 2.646a7.9 7.9 0 0 1 .786 3.467z" class="fills" style="fill:url(#f);stroke-width:.991597"/></svg>
